Papirus/48x48/apps/org.kde.karp.svg

<svg width="48" height="48" version="1.1" xmlns="http://www.w3.org/2000/svg">
 <path d="m11.7283 5.0043h-2.7283v36.8782l2.7283 0.4523zm-0.0903-0.0043v37.3273h25.2572c1.1661 0 2.1048-1.8519 2.1048-3.5906v-30.5984c0-1.73862-0.9387-3.1383-2.1048-3.1383zm-2.638 7.8507v32.1493h27.6051c1.2745 0 2.3004-1.3998 2.3004-3.1385v-25.8722c0-1.7388-1.0259-3.1386-2.3004-3.1386z" style="opacity:.2"/>
 <path d="m9 12.5714v31.4286h27.6922c1.2785 0 2.3078-1.3684 2.3078-3.0682v-25.2921c0-1.6999-1.0293-3.0683-2.3078-3.0683z" style="fill:#a80000"/>
 <path d="m9 16.857v25.914h27.6472c1.3034 0 2.3528-1.355 2.3528-3.0379v-19.8382c0-1.683-1.0494-3.0379-2.3528-3.0379z" style="fill:#e4e4e4"/>
 <path d="M 9,5 V 41 H 36.4827 C 37.7612,41 39,39.3225 39,37.6404 V 8.03633 C 39,6.35419 37.9707,5 36.6922,5 Z" style="fill:#a80000"/>
 <path d="M 9,4 V 40 H 36.6923 C 37.9708,40 39,38.2138 39,36.537 V 7.02669 C 39,5.3499 37.9708,4 36.6923,4 Z" style="fill:#c40f0f"/>
 <path d="m11.4889 4-2.2224 2.91355c2.8529 8.69735 11.3154 17.94305 15.2442 16.06695-2.5184 0.1861-7.3708-10.5187-7.3708-10.5187s12.2755 7.5427 7.4161 10.4896c0.7383-0.0833 1.4823-0.5329 2.1853-1.4143 3.0012-3.8189-2.4424-11.96636-11.3891-17.53226z" style="fill:#ff5c5c;stop-color:#000000"/>
 <path d="m12 4h-3v36h3z" style="fill:#a80000"/>
 <path d="m9 39.9997v4.0003h4.2857v-1h-3.2857v-2h3.2857v-1.0003z" style="fill:#a80000"/>
 <path d="m20.02875 34.13183-5.46e-4 -0.0031 4.536767 3.17933 13.623895-19.453236c0.501685-0.71649 0.327626-1.703635-0.388858-2.205322l-1.945626-1.362385c-0.358242-0.250843-0.783984-0.333405-1.183314-0.262993-0.399329 0.07041-0.771159 0.293608-1.022001 0.651849l-13.620317 19.455808-0.01469 2.432563-0.01406 2.435656 2.283957-0.846255 2.277901-0.845188 0.0031-5.47e-4" style="opacity:.2"/>
 <path d="m32.713 14.972128 0.90805-1.296824c0.501684-0.716478 1.489914-0.89073 2.20639-0.389047l1.94524 1.362071c0.716477 0.501682 0.89073 1.489915 0.389046 2.206394l-0.908045 1.296823z" style="fill:#999999"/>
 <path d="m22.269444 37.154702-2.269444-1.589082v-2.434378l4.552397 3.178162z" style="fill:#c4c4c4"/>
 <path d="m20 38v-2.43438l2.282945 1.589082z" fill="#424048"/>
 <path d="M 31.805151,16.269901 20,33.129404 l 1.167175,0.817267 0.129515,0.09248 1.946534,1.361195 1.294657,0.910095 11.806827,-16.861896 z" style="fill:#999999"/>
 <path d="m31.805 16.269201 0.908-1.296826 4.540726 3.179417-0.908726 1.297095z" style="fill:#c4c4c4"/>
 <path d="m34.974609 13c-0.101666-0.001758-0.202902 0.005835-0.302734 0.023438-0.399329 0.07041-0.772595 0.294102-1.023437 0.652343l-13.619141 19.455078-0.015625 2.433594-0.013672 2.435547 0.005859-0.001953 0.007813-1.433594 0.015625-2.433594 13.619141-19.455078c0.250842-0.358241 0.624108-0.581933 1.023437-0.652343 0.39933-0.070412 0.823399 0.012828 1.181641 0.263671l1.947265 1.363282c0.291312 0.203978 0.486831 0.489073 0.589844 0.802734 0.219952-0.649239 9e-5 -1.389659-0.589844-1.802734l-1.947265-1.363282c-0.268682-0.188132-0.573907-0.281835-0.878907-0.287109z" style="fill:#ffffff;opacity:.2"/>
 <path d="m11.6387 3.99999v0.00391h-2.6387v1h2.6387v-0.00391h25.2558c1.1661 0 2.1055 1.40006 2.1055 3.13868v-1c0-1.73862-0.9394-3.13868-2.1055-3.13868z" style="fill:#ffffff;opacity:.2"/>
</svg>

<svg xmlns="http://www.w3.org/2000/svg" width="48" height="48" version="1.1">
 <path style="opacity:0.2" d="m11.7283 5.0043h-2.7283v36.8782l2.7283 0.4523zm-0.0903-0.0043v37.3273h25.2572c1.1661 0 2.1048-1.8519 2.1048-3.5906v-30.5984c0-1.73862-0.9387-3.1383-2.1048-3.1383zm-2.638 7.8507v32.1493h27.6051c1.2745 0 2.3004-1.3998 2.3004-3.1385v-25.8722c0-1.7388-1.0259-3.1386-2.3004-3.1386z"/>
 <path style="fill:#a80000" d="m9 12.5714v31.4286h27.6922c1.2785 0 2.3078-1.3684 2.3078-3.0682v-25.2921c0-1.6999-1.0293-3.0683-2.3078-3.0683z"/>
 <path style="fill:#e4e4e4" d="M 10,35 V 42.771 H 36.647 C 37.951,42.771 39,41.416 39,39.733 V 37 L 37,35 Z"/>
 <path style="fill:#a80000" d="M 9,34 V 41 H 36.483 C 37.761,41 39,39.323 39,37.64 V 36 L 37,34 Z"/>
 <path style="fill:#c40f0f" d="M 11,4 V 40 H 36.692 C 37.971,40 39,38.214 39,36.537 V 7.0267 C 39,5.3499 37.971,4 36.692,4 Z"/>
 <path style="fill:#ff5c5c" d="m11.4889 4-2.2224 2.91355c2.8529 8.69735 11.3154 17.94305 15.2442 16.06695-2.5184 0.1861-7.3708-10.5187-7.3708-10.5187s12.2755 7.5427 7.4161 10.4896c0.7383-0.0833 1.4823-0.5329 2.1853-1.4143 3.0012-3.8189-2.4424-11.96636-11.3891-17.53226z"/>
 <path style="fill:#a80000" d="m12 4h-3v36h3z"/>
 <path style="opacity:0.2" d="M 34.947,14 C 34.439,13.992 33.935,14.228 33.621,14.676 L 20,34.129 V 39 L 24.545,37.299 38.162,17.855 C 38.664,17.139 38.49,16.15 37.773,15.648 L 35.828,14.287 C 35.559,14.099 35.252,14.005 34.947,14 Z"/>
 <path style="fill:#c4c4c4" d="M 31.805,16.269 32.713,14.972 35.376,16 37.254,18.152 36.345,19.449 33.279,19 Z"/>
 <path style="fill:#999999" d="m32.713 14.972128 0.90805-1.296824c0.501684-0.716478 1.489914-0.89073 2.20639-0.389047l1.94524 1.362071c0.716477 0.501682 0.89073 1.489915 0.389046 2.206394l-0.908045 1.296823z"/>
 <path style="fill:#c4c4c4" d="M 22.269,37.155 21,36.569 20,35.566 V 33.131 L 22.796,34 24.552,36.308 Z"/>
 <path fill="#424048" d="m20 38v-2.43438l2.282945 1.589082z"/>
 <path style="fill:#999999" d="M 31.805,16.27 20,33.129 24.538,36.31 36.345,19.449 Z"/>
 <path style="opacity:0.2;fill:#ffffff" d="M 34.975,13 C 34.873,12.998 34.772,13.006 34.672,13.023 34.273,13.094 33.899,13.318 33.648,13.676 L 20,33.131 V 34.147 L 33.648,14.676 C 33.899,14.318 34.273,14.094 34.672,14.023 35.071,13.953 35.495,14.036 35.854,14.287 L 37.801,15.65 C 38.092,15.854 38.288,16.139 38.391,16.453 38.611,15.804 38.391,15.063 37.801,14.65 L 35.854,13.287 C 35.585,13.099 35.28,13.005 34.975,13 Z"/>
 <path style="fill:#ffffff;opacity:0.1" d="M 9 4 L 9 5 L 36.691 5 C 37.97 5 39 6.3505 39 8.0273 L 39 7.0273 C 39 5.3505 37.97 4 36.691 4 L 9 4 z"/>
</svg>
